app/img/facebook.svg

<svg width="40" height="40" viewBox="0 0 40 40" fill="none" xmlns="http://www.w3.org/2000/svg">
<path fill-rule="evenodd" clip-rule="evenodd" d="M22.0846 31.7596V20.8785H25.0883L25.4863 17.1288H22.0846L22.0897 15.2521C22.0897 14.2741 22.1827 13.7501 23.5873 13.7501H25.4651V10H22.461C18.8526 10 17.5826 11.819 17.5826 14.878V17.1293H15.3333V20.8789H17.5826V31.7596H22.0846Z" fill="#1E2E36"/>
</svg>

<svg width="40" height="40" fill="none" xmlns="http://www.w3.org/2000/svg"><path fill-rule="evenodd" clip-rule="evenodd" d="M22.085 31.76V20.878h3.003l.398-3.75h-3.401l.005-1.876c0-.978.093-1.502 1.497-1.502h1.878V10h-3.004c-3.608 0-4.878 1.819-4.878 4.878v2.251h-2.25v3.75h2.25v10.88h4.502z" fill="#1E2E36"/></svg>
